!!!OTL: MOHKUEHCHEN MOH WOVON BIST DU SO ROH
!!!ARE: Europa, Mitteleuropa, Deutschland, Halle
!!!SCT: K0653
!!!YEM: Copyright 1995, estate of Helmut Schaffrath.
**kern
*ICvox
*Ivox
*M2/4
*k[b-]
*F:
=1
{4cc
8a
8g
=2
4f
8r}
{8c
=3
8cc
8cc
8a
8g
=4
4f
8r}
{8c
=5
8f
8a
8a
8cc
=6
16cc
16b-
8a
8g}
{8f
=7
8f
8a
8a
8cc
=8
16cc
16cc
8a
8g}
{16a
16g
=9
8f
8f
8g
8g
=10
4f
8r}
{8cc
=11
8.cc
16b-
8a
8f
=12
8b-
8dd
8cc
16r}
{16a
=13
8a
8g
16a
16a
8f
=14
4g
8f
8r}
==
!!!AGN: Kinder -, Tier - Lied
!!!ONB: ESAC (Essen Associative Code) Database: KINDER
!!!AMT: simple duple
!!!AIN: vox
!!!EED: Helmut Schaffrath
!!!EEV: 1.0
*-
